rospo-newyear-dark/symbolic/status/battery-full-charging-symbolic.svg

<svg height="16" width="16" xmlns="http://www.w3.org/2000/svg"><path d="m6 1v1h-3v1 11c0 .55.45 1 1 1h8c .55 0 1-.45 1-1v-11c0-.55 0-1 0-1h-3v-1zm2 4v3h3l-3 5v-3h-3z" fill="#d3dae3"/><path d="m6 1v1h-3v12c0 .55.446 1 1 1h8c .554 0 1-.45 1-1v-12h-3v-1zm2 4v3h3l-3 5v-3h-3z" fill="#d3dae3"/></svg>

<svg xmlns="http://www.w3.org/2000/svg" width="16" height="16" version="1.1">
 <path style="fill:#d3dae3" d="M 6,1 V 2 H 3 C 3,2 3,2.45 3,3 V 14 C 3,14.55 3.45,15 4,15 H 12 C 12.55,15 13,14.55 13,14 V 3 C 13,2.45 13,2 13,2 H 10 V 1 Z M 8,5 V 8 H 11 L 8,13 V 10 H 5 Z"/>
 <path style="fill:#d3dae3" d="M 6,1 V 2 H 3 V 14 C 3,14.55 3.446,15 4,15 H 12 C 12.554,15 13,14.55 13,14 V 2 H 10 V 1 Z M 8,5 V 8 H 11 L 8,13 V 10 H 5 Z"/>
</svg>
